X:229
T: IM SCHOENSTEN WIESENGRUNDE
N: B0275
O: Europa, Mitteleuropa, Deutschland, Oberrhein
R: Stimmungs - Lied, Sehnsucht, Heimat, Heimweh, Trauer
M: 4/4
L: 1/16
K: Eb
E,2G,2 | B,6C2B,4A,4 | G,6F,2E,4
B,4 | C4B,4A,4G,4 | F,8z4
B,4 | B,4B,4B,4E4 | E8C4
F4 | E8D8 | E8z4
B,3G, | G,3F,F,8C3A, | A,3G,G,8
E,2G,2 | B,4B,4B,4E4 | E8C4
F4 | E8D8 | E8z4

@@@ Tune index: 2032
